X: 7197
T: Cinn Mhara
R: slip jig
M: 9/8
K: Bminor
B3 BAB def|B2A AGE EFA|cdB BAc dcA|1 def afe dBA:|2 def afb afe||
|:dBA B2A def|gee fdd Bdd|ged B2A def|1 afb afe edB:|2 1afb afe dBA||

